**harm	**harte	**kern	**silbe	**kern	**silbe	**kern	**silbe	**rhyme	**timestamp	**phrase	**leadinstrument
*M4/4	*M4/4	*ICvox	*	*ICvox	*	*ICvox	*	*	*	*	*
*	*	*VRlead	*	*VRharmonize	*	*VRbacking*VRharmonize	*	*	*	*	*
*	*	*Hstimme	*	*Nstimme	*	*Nstimme	*	*	*	*	*
*C:	*C:	*C:	*	*C:	*	*C:	*	*	*	*	*
*	*	*M4/4	*	*M4/4	*	*M4/4	*	*	*	*	*
*	*	*clefC3	*	*clefC3	*	*clefF4	*	*	*	*	*
1r;	N	r;	.	r;	.	r;	.	.	0	.	r
=1	=1	=1	=1	=1	=1	=1	=1	=1	=1	=1	=1
*>Letter>A	*>Letter>A	*>Letter>A	*>Letter>A	*>Letter>A	*>Letter>A	*>Letter>A	*>Letter>A	*>Letter>A	*>Letter>A	*>Letter>A	*>Letter>A
*>Label>Intro	*>Label>Intro	*>Label>Intro	*>Label>Intro	*>Label>Intro	*>Label>Intro	*>Label>Intro	*>Label>Intro	*>Label>Intro	*>Label>Intro	*>Label>Intro	*>Label>Intro
1I	C:maj	1r	.	1r	.	1r	.	.	0.418	newline	r
=2	=2	=2	=2	=2	=2	=2	=2	=2	=2	=2	=2
1I	C:maj	1r	.	1r	.	1r	.	.	2.398	.	r
=3	=3	=3	=3	=3	=3	=3	=3	=3	=3	=3	=3
1I	C:maj	1r	.	1r	.	1r	.	.	4.379	newline	r
=4	=4	=4	=4	=4	=4	=4	=4	=4	=4	=4	=4
1I	C:maj	2r	.	2r	.	2r	.	.	6.304	.	r
.	.	4r	.	4r	.	4r	.	.	.	.	.
.	.	4e	El-	4c 4g	El-	4C	El-	.	.	.	.
=5	=5	=5	=5	=5	=5	=5	=5	=5	=5	=5	=5
*>Letter>B	*>Letter>B	*>Letter>B	*>Letter>B	*>Letter>B	*>Letter>B	*>Letter>B	*>Letter>B	*>Letter>B	*>Letter>B	*>Letter>B	*>Letter>B
*>Label>Chorus	*>Label>Chorus	*>Label>Chorus	*>Label>Chorus	*>Label>Chorus	*>Label>Chorus	*>Label>Chorus	*>Label>Chorus	*>Label>Chorus	*>Label>Chorus	*>Label>Chorus	*>Label>Chorus
1I	C:maj	4c	-vi-	4G 4e	-vi-	4C	-vi-	(A	8.229	newline	voice
.	.	4e	-ra	4c 4g	-ra	4C	-ra	a)	.	.	.
.	.	2r	.	2r	.	2r	.	.	.	.	.
=6	=6	=6	=6	=6	=6	=6	=6	=6	=6	=6	=6
1I	C:maj	2r	.	2r	.	2r	.	.	10.122	.	voice
.	.	4r	.	4r	.	4r	.	.	.	.	.
.	.	12e	El	4c 4g	El	4C	El	.	.	.	.
.	.	6d	_	.	.	.	.	.	.	.	.
=7	=7	=7	=7	=7	=7	=7	=7	=7	=7	=7	=7
1I	C:maj	4c	vi-	4G 4e	vi-	4C	vi-	(A	12.015	newline	voice
.	.	4e	-ra	4c 4g	-ra	4C	-ra	a)	.	.	.
.	.	2r	.	2r	.	2r	.	.	.	.	.
=8	=8	=8	=8	=8	=8	=8	=8	=8	=8	=8	=8
1I	C:maj	2r	.	2r	.	2r	.	.	13.933	.	voice
.	.	4r	.	4r	.	4r	.	.	.	.	.
.	.	4c	My	4G 4e	My	4C	My	.	.	.	.
=9	=9	=9	=9	=9	=9	=9	=9	=9	=9	=9	=9
1I	C:maj	2.e	heart's	2.c 2.g	heart's	2.C	heart's	.	15.852	newline	voice
.	.	4e	on	4c 4g	on	4C	on	.	.	.	.
=10	=10	=10	=10	=10	=10	=10	=10	=10	=10	=10	=10
1V	G:maj	16e	fi	4B 4g	fi	4GG	fi	(A	17.777	.	voice
.	.	8.d	_	.	.	.	.	.	.	.	.
.	.	8d	re	8B 8g	re	8GG	re	a)	.	.	.
.	.	8r	.	8r	.	8r	.	.	.	.	.
.	.	8r	.	8r	.	8r	.	.	.	.	.
.	.	8c	for	8A 8f	for	8DD	for	.	.	.	.
.	.	8dq	_	.	.	.	.	.	.	.	.
.	.	12e	El	4B 4g	El	4GG	El	.	.	.	.
.	.	6d	_	.	.	.	.	.	.	.	.
=11	=11	=11	=11	=11	=11	=11	=11	=11	=11	=11	=11
1I	C:maj	4c	vi-	4G 4e	vi-	4CC	vi-	(A	19.703	.	voice
.	.	4e	-ra	4c 4g	-ra	4CC	-ra	a)	.	.	.
.	.	2r	.	2r	.	2r	.	.	.	.	.
=12	=12	=12	=12	=12	=12	=12	=12	=12	=12	=12	=12
1I	C:maj	1r	.	1r	.	1r	.	.	21.629	.	voice
=13	=13	=13	=13	=13	=13	=13	=13	=13	=13	=13	=13
*>Letter>C	*>Letter>C	*>Letter>C	*>Letter>C	*>Letter>C	*>Letter>C	*>Letter>C	*>Letter>C	*>Letter>C	*>Letter>C	*>Letter>C	*>Letter>C
*>Label>Verse	*>Label>Verse	*>Label>Verse	*>Label>Verse	*>Label>Verse	*>Label>Verse	*>Label>Verse	*>Label>Verse	*>Label>Verse	*>Label>Verse	*>Label>Verse	*>Label>Verse
1Im7	C:7	4c	Eyes	1r	.	1r	.	.	23.555	newline	.
.	.	8c	that	.	.	.	.	.	.	.	.
.	.	8B	l-	.	.	.	.	.	.	.	.
.	.	8Bq	_	.	.	.	.	.	.	.	.
.	.	4c	-look	.	.	.	.	.	.	.	.
.	.	4c	like	.	.	.	.	.	.	.	.
=14	=14	=14	=14	=14	=14	=14	=14	=14	=14	=14	=14
1Im7	C:7	8c	Hea-	1r	.	1r	.	.	25.458	.	.
.	.	8B	-ven	.	.	.	.	.	.	.	.
.	.	4r	.	.	.	.	.	.	.	.	.
.	.	2r	.	.	.	.	.	.	.	.	.
=15	=15	=15	=15	=15	=15	=15	=15	=15	=15	=15	=15
1Im7	C:7	4c	Lips	1r	.	1r	.	.	27.361	.	.
.	.	4c	like	.	.	.	.	.	.	.	.
.	.	8c	cher-	.	.	.	.	.	.	.	.
.	.	4c	-ry	.	.	.	.	.	.	.	.
.	.	8d#q	_	.	.	.	.	.	.	.	.
.	.	8e	wine	.	.	.	.	B	.	.	.
=16	=16	=16	=16	=16	=16	=16	=16	=16	=16	=16	=16
1Im7	C:7	2r	.	1r	.	1r	.	.	29.264	.	.
.	.	4r	.	.	.	.	.	.	.	.	.
.	.	4c	That	.	.	.	.	.	.	.	.
=17	=17	=17	=17	=17	=17	=17	=17	=17	=17	=17	=17
.	.	8d#q	_	.	.	.	.	.	.	.	.
1Im7	C:7	4e	girl	1r	.	1r	.	.	31.167	.	.
.	.	4e	can	.	.	.	.	.	.	.	.
.	.	8e	sure	.	.	.	.	.	.	.	.
.	.	8d#	e-	.	.	.	.	.	.	.	.
.	.	4e	-nough	.	.	.	.	.	.	.	.
=18	=18	=18	=18	=18	=18	=18	=18	=18	=18	=18	=18
.	.	8d#q	_	.	.	.	.	.	.	.	.
1Im7	C:7	4e	make	1r	.	1r	.	.	33.07	.	.
.	.	8e	my	.	.	.	.	.	.	.	.
.	.	8d#	_	.	.	.	.	.	.	.	.
.	.	8e	lit-	.	.	.	.	.	.	.	.
.	.	8d#	-tle	.	.	.	.	.	.	.	.
.	.	4e	light	.	.	.	.	.	.	.	.
=19	=19	=19	=19	=19	=19	=19	=19	=19	=19	=19	=19
1V7	G:7	8f	shine	1r	.	1r	.	B	34.973	newline	.
.	.	8e	_	.	.	.	.	.	.	.	.
.	.	[4d	_	.	.	.	.	.	.	.	.
.	.	4.d]	_	.	.	.	.	.	.	.	.
.	.	16e	_	.	.	.	.	.	.	.	.
.	.	16d	_	.	.	.	.	.	.	.	.
=20	=20	=20	=20	=20	=20	=20	=20	=20	=20	=20	=20
1V7	G:7	16e	_	1r	.	1r	.	.	36.876	.	.
.	.	16g	_	.	.	.	.	.	.	.	.
.	.	8r	.	.	.	.	.	.	.	.	.
.	.	4r	.	.	.	.	.	.	.	.	.
.	.	2r	.	.	.	.	.	.	.	.	.
=21	=21	=21	=21	=21	=21	=21	=21	=21	=21	=21	=21
.	.	8fq	_	.	.	.	.	.	.	.	.
1Im7	C:7	4g	I	1r	.	1r	.	.	38.779	newline	.
.	.	8g	get	.	.	.	.	.	.	.	.
.	.	8g	a	.	.	.	.	.	.	.	.
.	.	8a	fun-	.	.	.	.	.	.	.	.
.	.	4g	-ny	.	.	.	.	.	.	.	.
.	.	8d#q	_	.	.	.	.	.	.	.	.
.	.	8e	fee-	.	.	.	.	.	.	.	.
=22	=22	=22	=22	=22	=22	=22	=22	=22	=22	=22	=22
1Im7	C:7	8e	-ling	1r	.	1r	.	.	40.66	.	.
.	.	16dQ	_	.	.	.	.	.	.	.	.
.	.	16cQ	_	.	.	.	.	.	.	.	.
.	.	8r	.	.	.	.	.	.	.	.	.
.	.	4r	.	.	.	.	.	.	.	.	.
.	.	2r	.	.	.	.	.	.	.	.	.
=23	=23	=23	=23	=23	=23	=23	=23	=23	=23	=23	=23
1IVm7	F:7	8g	up	1r	.	1r	.	.	42.54	newline	.
.	.	4c	and	.	.	.	.	.	.	.	.
.	.	8e-	down	.	.	.	.	.	.	.	.
.	.	8d	_	.	.	.	.	.	.	.	.
.	.	4c	my	.	.	.	.	.	.	.	.
.	.	16A	spine	.	.	.	.	B	.	.	.
.	.	[16c	_	.	.	.	.	.	.	.	.
=24	=24	=24	=24	=24	=24	=24	=24	=24	=24	=24	=24
1IVm7	F:7	8c]	_	1r	.	1r	.	.	44.421	.	.
.	.	8r	.	.	.	.	.	.	.	.	.
.	.	4r	.	.	.	.	.	.	.	.	.
.	.	2r	.	.	.	.	.	.	.	.	.
=25	=25	=25	=25	=25	=25	=25	=25	=25	=25	=25	=25
1Im7	C:7	4e	cuz	1r	.	1r	.	.	46.302	newline	.
.	.	4e	I	.	.	.	.	.	.	.	.
.	.	8d#q	_	.	.	.	.	.	.	.	.
.	.	8e	know	.	.	.	.	.	.	.	.
.	.	8d	_	.	.	.	.	.	.	.	.
.	.	4c	that	.	.	.	.	.	.	.	.
=26	=26	=26	=26	=26	=26	=26	=26	=26	=26	=26	=26
.	.	8cq	_	.	.	.	.	.	.	.	.
1V7	G:7	4d	my	1r	.	1r	.	.	48.207	.	.
.	.	8dq	_	.	.	.	.	.	.	.	.
.	.	4e	El-	.	.	.	.	.	.	.	.
.	.	8dq	_	.	.	.	.	.	.	.	.
.	.	4e	-vi-	.	.	.	.	.	.	.	.
.	.	4d	-ra's	.	.	.	.	.	.	.	.
=27	=27	=27	=27	=27	=27	=27	=27	=27	=27	=27	=27
.	.	8dq	_	.	.	.	.	.	.	.	.
1Im7	C:7	8e	mine	1r	.	1r	.	B	50.112	newline	.
.	.	8d	_	.	.	.	.	.	.	.	.
.	.	4c	_	.	.	.	.	.	.	.	.
.	.	2r	.	.	.	.	.	.	.	.	.
=28	=28	=28	=28	=28	=28	=28	=28	=28	=28	=28	=28
1Im7	C:7	8r	.	2r	.	2r	.	.	52.007	.	.
.	.	8~F	Cuz	.	.	.	.	.	.	.	.
.	.	4e	I'm	.	.	.	.	.	.	.	.
.	.	8e	sing-	4r	.	4r	.	.	.	.	.
.	.	8d#	-ing	.	.	.	.	.	.	.	.
.	.	4e	El-	4c 4g	El-	4C	El-	.	.	.	.
=29	=29	=29	=29	=29	=29	=29	=29	=29	=29	=29	=29
*>Letter>B	*>Letter>B	*>Letter>B	*>Letter>B	*>Letter>B	*>Letter>B	*>Letter>B	*>Letter>B	*>Letter>B	*>Letter>B	*>Letter>B	*>Letter>B
*>Label>Chorus	*>Label>Chorus	*>Label>Chorus	*>Label>Chorus	*>Label>Chorus	*>Label>Chorus	*>Label>Chorus	*>Label>Chorus	*>Label>Chorus	*>Label>Chorus	*>Label>Chorus	*>Label>Chorus
1I	C:maj	4c	-vi-	4G 4e	-vi-	4C	-vi-	(A	53.902	newline	.
.	.	4e	-ra	4c 4g	-ra	4C	-ra	a)	.	.	.
.	.	2r	.	2r	.	2r	.	.	.	.	.
=30	=30	=30	=30	=30	=30	=30	=30	=30	=30	=30	=30
1I	C:maj	2r	.	2r	.	2r	.	.	55.832	.	.
.	.	4r	.	4r	.	4r	.	.	.	.	.
.	.	12e	El	4c 4g	El	4C	El	.	.	.	.
.	.	6d	_	.	.	.	.	.	.	.	.
=31	=31	=31	=31	=31	=31	=31	=31	=31	=31	=31	=31
1I	C:maj	4c	vi-	4G 4e	vi-	4C	vi-	(A	57.762	newline	.
.	.	4e	-ra	4c 4g	-ra	4C	-ra	a)	.	.	.
.	.	2r	.	2r	.	2r	.	.	.	.	.
=32	=32	=32	=32	=32	=32	=32	=32	=32	=32	=32	=32
1I	C:maj	2r	.	2r	.	2r	.	.	59.639	.	.
.	.	4r	.	4r	.	4r	.	.	.	.	.
.	.	4c	My	4G 4e	My	4C	My	.	.	.	.
=33	=33	=33	=33	=33	=33	=33	=33	=33	=33	=33	=33
1I	C:maj	2.e	heart's	2.c 2.g	heart's	2.C	heart's	.	61.516	newline	.
.	.	4e	on	4c 4g	on	4C	on	.	.	.	.
=34	=34	=34	=34	=34	=34	=34	=34	=34	=34	=34	=34
1V	G:maj	16e	fi	4B 4g	fi	4GG	fi	(A	63.406	.	.
.	.	8.d	_	.	.	.	.	.	.	.	.
.	.	8d	re	8B 8g	re	8GG	re	a)	.	.	.
.	.	8r	.	8r	.	8r	.	.	.	.	.
.	.	8r	.	8r	.	8r	.	.	.	.	.
.	.	8c	for	8A 8f	for	8DD	for	.	.	.	.
.	.	8dq	_	.	.	.	.	.	.	.	.
.	.	12e	El	4B 4g	El	4GG	El	.	.	.	.
.	.	6d	_	.	.	.	.	.	.	.	.
=35	=35	=35	=35	=35	=35	=35	=35	=35	=35	=35	=35
1I	C:maj	4c	vi-	4G 4e	vi-	4CC	vi-	(A	65.296	.	.
.	.	4e	-ra	4c 4g	-ra	4CC	-ra	a)	.	.	.
.	.	2r	.	2r	.	2r	.	.	.	.	.
=36	=36	=36	=36	=36	=36	=36	=36	=36	=36	=36	=36
1I	C:maj	1r	.	1r	.	1r	.	.	67.186	.	.
=37	=37	=37	=37	=37	=37	=37	=37	=37	=37	=37	=37
*>Letter>D	*>Letter>D	*>Letter>D	*>Letter>D	*>Letter>D	*>Letter>D	*>Letter>D	*>Letter>D	*>Letter>D	*>Letter>D	*>Letter>D	*>Letter>D
*>Label>Bridge	*>Label>Bridge	*>Label>Bridge	*>Label>Bridge	*>Label>Bridge	*>Label>Bridge	*>Label>Bridge	*>Label>Bridge	*>Label>Bridge	*>Label>Bridge	*>Label>Bridge	*>Label>Bridge
1I	C:maj	8e	Gid-	8c 8g	Gid-	8C	Gid-	.	69.076	newline	.
.	.	8e	-dy	8c 8g	-dy	8C	-dy	.	.	.	.
.	.	4e	up	4c 4g	up	8C	up,	.	.	.	.
.	.	.	.	.	.	8GG	pa-	.	.	.	.
.	.	2r	.	2r	.	4C	-oom,	.	.	.	.
.	.	.	.	.	.	8C	pa-	.	.	.	.
.	.	.	.	.	.	8~GG	-pa-	.	.	.	.
=38	=38	=38	=38	=38	=38	=38	=38	=38	=38	=38	=38
1I	C:1	1r	.	1r	.	4C	-oom,	.	70.011	.	.
.	.	.	.	.	.	8C	pa-	.	.	.	.
.	.	.	.	.	.	8GG	-pa-	.	.	.	.
.	.	.	.	.	.	4BB-	-maow-	.	.	.	.
.	.	.	.	.	.	4~BB	-maow,	.	.	.	.
=39	=39	=39	=39	=39	=39	=39	=39	=39	=39	=39	=39
1I	C:maj	8e	Gid-	8c 8g	Gid-	8C	gid-	.	72.815	.	.
.	.	8e	-dy	8c 8g	-dy	8C	-dy	.	.	.	.
.	.	4e	up	4c 4g	up	8C	up,	.	.	.	.
.	.	.	.	.	.	8~GG	pa-	.	.	.	.
.	.	2r	.	2r	.	4C	-oom,	.	.	.	.
.	.	.	.	.	.	8C	pa-	.	.	.	.
.	.	.	.	.	.	8~GG	-pa-	.	.	.	.
=40	=40	=40	=40	=40	=40	=40	=40	=40	=40	=40	=40
1I	C:1	1r	.	1r	.	4C	-oom,	.	73.75	.	.
.	.	.	.	.	.	8C	pa-	.	.	.	.
.	.	.	.	.	.	8~GG	-pa-	.	.	.	.
.	.	.	.	.	.	4BB-	-maow	.	.	.	.
.	.	.	.	.	.	4~BB	maow	.	.	.	.
=41	=41	=41	=41	=41	=41	=41	=41	=41	=41	=41	=41
1I	C:maj	2.e	Hi-	2.c 2.g	Hi-	2.C	hi-	.	76.554	newline	.
.	.	4e	-ho,	4c 4g	-ho,	4C	-ho,	.	.	.	.
=42	=42	=42	=42	=42	=42	=42	=42	=42	=42	=42	=42
1V	G:maj	16e	Sil	4B 4g	Sil	4GG	Sil-	.	78.454	.	.
.	.	8.d	_	.	.	.	.	.	.	.	.
.	.	8e	ver	8B 8g	ver	8GG	-ver	.	.	.	.
.	.	8r	.	8r	.	8r	.	.	.	.	.
.	.	4r	.	4r	.	4r	.	.	.	.	.
.	.	4e	a-	4B 4g	a-	4GG	a-	.	.	.	.
=43	=43	=43	=43	=43	=43	=43	=43	=43	=43	=43	=43
1I	C:maj	8e	-way	8c 8g	-way	8CC	-way	C	80.353	.	.
.	.	8d	_	8A 8f	_	8CC	_	.	.	.	.
.	.	4c	_	4G 4e	_	4CC	_	.	.	.	.
.	.	2r	.	2r	.	2r	.	.	.	.	.
=44	=44	=44	=44	=44	=44	=44	=44	=44	=44	=44	=44
1I	C:maj	2r	.	1r	.	1r	.	.	82.253	.	.
.	.	4r	.	.	.	.	.	.	.	.	.
.	.	4c	To-	.	.	.	.	.	.	.	.
=45	=45	=45	=45	=45	=45	=45	=45	=45	=45	=45	=45
*>Letter>C	*>Letter>C	*>Letter>C	*>Letter>C	*>Letter>C	*>Letter>C	*>Letter>C	*>Letter>C	*>Letter>C	*>Letter>C	*>Letter>C	*>Letter>C
*>Label>Verse	*>Label>Verse	*>Label>Verse	*>Label>Verse	*>Label>Verse	*>Label>Verse	*>Label>Verse	*>Label>Verse	*>Label>Verse	*>Label>Verse	*>Label>Verse	*>Label>Verse
1Im7	C:7	4c	-night,	1r	.	1r	.	.	84.152	newline	.
.	.	8c	I'm	.	.	.	.	.	.	.	.
.	.	8B	_	.	.	.	.	.	.	.	.
.	.	8Bq	_	.	.	.	.	.	.	.	.
.	.	4c	gon-	.	.	.	.	.	.	.	.
.	.	8A	-na	.	.	.	.	.	.	.	.
.	.	[8c	meet	.	.	.	.	.	.	.	.
=46	=46	=46	=46	=46	=46	=46	=46	=46	=46	=46	=46
1Im7	C:7	8c]	_	1r	.	1r	.	.	86.05	.	.
.	.	8A	her	.	.	.	.	d	.	.	.
.	.	4r	.	.	.	.	.	.	.	.	.
.	.	8r	.	.	.	.	.	.	.	.	.
.	.	4c	at	.	.	.	.	.	.	.	.
.	.	8A	the	.	.	.	.	.	.	.	.
=47	=47	=47	=47	=47	=47	=47	=47	=47	=47	=47	=47
1Im7	C:7	4c	Hun-	1r	.	1r	.	.	87.947	.	.
.	.	8A	-gry	.	.	.	.	.	.	.	.
.	.	[8c	House	.	.	.	.	.	.	.	.
.	.	4c]	_	.	.	.	.	.	.	.	.
.	.	8c	Ca-	.	.	.	.	.	.	.	.
.	.	8d#q	_	.	.	.	.	.	.	.	.
.	.	8e	-fe	.	.	.	.	C	.	.	.
=48	=48	=48	=48	=48	=48	=48	=48	=48	=48	=48	=48
1Im7	C:7	2r	.	1r	.	1r	.	.	89.844	.	.
.	.	4r	.	.	.	.	.	.	.	.	.
.	.	8r	.	.	.	.	.	.	.	.	.
.	.	8~G	And	.	.	.	.	.	.	.	.
=49	=49	=49	=49	=49	=49	=49	=49	=49	=49	=49	=49
1Im7	C:7	4e	I'm	1r	.	1r	.	.	91.741	.	.
.	.	8e	gon-	.	.	.	.	.	.	.	.
.	.	8d#	-na	.	.	.	.	.	.	.	.
.	.	4e	give	.	.	.	.	.	.	.	.
.	.	4e	her	.	.	.	.	.	.	.	.
=50	=50	=50	=50	=50	=50	=50	=50	=50	=50	=50	=50
.	.	8d#q	_	.	.	.	.	.	.	.	.
1Im7	C:7	4e	all	1r	.	1r	.	.	93.639	.	.
.	.	8d#	the	.	.	.	.	.	.	.	.
.	.	[8e	love	.	.	.	.	.	.	.	.
.	.	8e]	_	.	.	.	.	.	.	.	.
.	.	4e	I	.	.	.	.	.	.	.	.
.	.	8f	can,	.	.	.	.	E	.	.	.
=51	=51	=51	=51	=51	=51	=51	=51	=51	=51	=51	=51
1V7	G:7	8e	_	1r	.	1r	.	.	95.536	newline	.
.	.	4.d	_	.	.	.	.	.	.	.	.
.	.	8d	yes	.	.	.	.	.	.	.	.
.	.	8cq	_	.	.	.	.	.	.	.	.
.	.	4d	I	.	.	.	.	.	.	.	.
.	.	16B	am	.	.	.	.	E	.	.	.
.	.	16A	_	.	.	.	.	.	.	.	.
=52	=52	=52	=52	=52	=52	=52	=52	=52	=52	=52	=52
1V7	G:7	8G	_	1r	.	1r	.	.	97.411	.	.
.	.	8r	.	.	.	.	.	.	.	.	.
.	.	4r	.	.	.	.	.	.	.	.	.
.	.	2r	.	.	.	.	.	.	.	.	.
=53	=53	=53	=53	=53	=53	=53	=53	=53	=53	=53	=53
.	.	8fq	_	.	.	.	.	.	.	.	.
1Im7	C:7	4g	She's	1r	.	1r	.	.	99.285	newline	.
.	.	8g	gon-	.	.	.	.	.	.	.	.
.	.	8g	-na	.	.	.	.	.	.	.	.
.	.	8a	jump	.	.	.	.	.	.	.	.
.	.	4g	and	.	.	.	.	.	.	.	.
.	.	8d#q	_	.	.	.	.	.	.	.	.
.	.	[8e	hol	.	.	.	.	(D	.	.	.
=54	=54	=54	=54	=54	=54	=54	=54	=54	=54	=54	=54
1Im7	C:7	16e]	_	1r	.	1r	.	.	101.188	.	.
.	.	8.c	ler	.	.	.	.	d)	.	.	.
.	.	4r	.	.	.	.	.	.	.	.	.
.	.	8r	.	.	.	.	.	.	.	.	.
.	.	8A	cuz	.	.	.	.	.	.	.	.
.	.	4c	I	.	.	.	.	.	.	.	.
=55	=55	=55	=55	=55	=55	=55	=55	=55	=55	=55	=55
.	.	8dq	_	.	.	.	.	.	.	.	.
1IVm7	F:7	4e-	saved	1r	.	1r	.	.	103.091	newline	.
.	.	8c	up	.	.	.	.	.	.	.	.
.	.	8A	my	.	.	.	.	.	.	.	.
.	.	4c	last	.	.	.	.	.	.	.	.
.	.	8e-	two	.	.	.	.	.	.	.	.
.	.	8dq	_	.	.	.	.	.	.	.	.
.	.	[8e-	dol	.	.	.	.	(D	.	.	.
=56	=56	=56	=56	=56	=56	=56	=56	=56	=56	=56	=56
1IVm7	F:7	8e-]	_	1r	.	1r	.	.	104.964	.	.
.	.	8cq	_	.	.	.	.	.	.	.	.
.	.	8c	lars	.	.	.	.	d)	.	.	.
.	.	4r	.	.	.	.	.	.	.	.	.
.	.	2r	.	.	.	.	.	.	.	.	.
=57	=57	=57	=57	=57	=57	=57	=57	=57	=57	=57	=57
1Im7	C:7	4e	We	1r	.	1r	.	.	106.837	newline	.
.	.	8e	gon-	.	.	.	.	.	.	.	.
.	.	8d	-na	.	.	.	.	.	.	.	.
.	.	8e	search	.	.	.	.	.	.	.	.
.	.	8d	_	.	.	.	.	.	.	.	.
.	.	4c	and	.	.	.	.	.	.	.	.
=58	=58	=58	=58	=58	=58	=58	=58	=58	=58	=58	=58
.	.	8cq	_	.	.	.	.	.	.	.	.
1V7	G:7	4d	find	1r	.	1r	.	.	108.752	.	.
.	.	8dq	_	.	.	.	.	.	.	.	.
.	.	4e	that	.	.	.	.	.	.	.	.
.	.	8dq	_	.	.	.	.	.	.	.	.
.	.	4e	prea-	.	.	.	.	.	.	.	.
.	.	4d	-cher	.	.	.	.	.	.	.	.
=59	=59	=59	=59	=59	=59	=59	=59	=59	=59	=59	=59
.	.	8dq	_	.	.	.	.	.	.	.	.
1Im7	C:7	8e	man	1r	.	1r	.	E	110.667	newline	.
.	.	8d	_	.	.	.	.	.	.	.	.
.	.	4c	_	.	.	.	.	.	.	.	.
.	.	2r	.	.	.	.	.	.	.	.	.
=60	=60	=60	=60	=60	=60	=60	=60	=60	=60	=60	=60
1Im7	C:7	8r	.	2r	.	2r	.	.	112.532	.	.
.	.	8~F	And	.	.	.	.	.	.	.	.
.	.	8e	I'll	.	.	.	.	.	.	.	.
.	.	8d#	be	.	.	.	.	.	.	.	.
.	.	8e	sin-	4r	.	4r	.	.	.	.	.
.	.	8d#	-gin',	.	.	.	.	.	.	.	.
.	.	4e	El-	4c 4g	El-	4C	El-	.	.	.	.
=61	=61	=61	=61	=61	=61	=61	=61	=61	=61	=61	=61
*>Letter>B	*>Letter>B	*>Letter>B	*>Letter>B	*>Letter>B	*>Letter>B	*>Letter>B	*>Letter>B	*>Letter>B	*>Letter>B	*>Letter>B	*>Letter>B
*>Label>Chorus	*>Label>Chorus	*>Label>Chorus	*>Label>Chorus	*>Label>Chorus	*>Label>Chorus	*>Label>Chorus	*>Label>Chorus	*>Label>Chorus	*>Label>Chorus	*>Label>Chorus	*>Label>Chorus
1I	C:maj	4c	-vi-	4G 4e	-vi-	4C	-vi-	(A	114.396	newline	.
.	.	4e	-ra	4c 4g	-ra	4C	-ra	a)	.	.	.
.	.	2r	.	2r	.	2r	.	.	.	.	.
=62	=62	=62	=62	=62	=62	=62	=62	=62	=62	=62	=62
1I	C:maj	2r	.	2r	.	2r	.	.	116.266	.	.
.	.	4r	.	4r	.	4r	.	.	.	.	.
.	.	4e	El	4c 4g	El	4C	El	.	.	.	.
=63	=63	=63	=63	=63	=63	=63	=63	=63	=63	=63	=63
1I	C:maj	4c	vi-	4G 4e	vi-	4C	vi-	(A	118.136	newline	.
.	.	4e	-ra	4c 4g	-ra	4C	-ra	a)	.	.	.
.	.	2r	.	2r	.	2r	.	.	.	.	.
=64	=64	=64	=64	=64	=64	=64	=64	=64	=64	=64	=64
1I	C:maj	2r	.	2r	.	2r	.	.	120.046	.	.
.	.	4r	.	4r	.	4r	.	.	.	.	.
.	.	4c	My	4G 4e	My	4C	My	.	.	.	.
=65	=65	=65	=65	=65	=65	=65	=65	=65	=65	=65	=65
1I	C:maj	2.e	heart's	2.c 2.g	heart's	2.C	heart's	.	121.956	newline	.
.	.	4e	on	4c 4g	on	4C	on	.	.	.	.
=66	=66	=66	=66	=66	=66	=66	=66	=66	=66	=66	=66
1V	G:maj	16e	fi	4B 4g	fi	4GG	fi	(A	123.843	.	.
.	.	8.d	_	.	.	.	.	.	.	.	.
.	.	8d	re	8B 8g	re	8GG	re	a)	.	.	.
.	.	8r	.	8r	.	8r	.	.	.	.	.
.	.	8r	.	8r	.	8r	.	.	.	.	.
.	.	8c	for	8A 8f	for	8DD	for	.	.	.	.
.	.	8dq	_	.	.	.	.	.	.	.	.
.	.	12e	El	4B 4g	El	4GG	El	.	.	.	.
.	.	6d	_	.	.	.	.	.	.	.	.
=67	=67	=67	=67	=67	=67	=67	=67	=67	=67	=67	=67
1I	C:maj	4c	vi-	4G 4e	vi-	4CC	vi-	(A	125.73	.	.
.	.	4e	-ra	4c 4g	-ra	4CC	-ra	a)	.	.	.
.	.	2r	.	2r	.	2r	.	.	.	.	.
=68	=68	=68	=68	=68	=68	=68	=68	=68	=68	=68	=68
1I	C:maj	1r	.	1r	.	1r	.	.	127.616	.	.
=69	=69	=69	=69	=69	=69	=69	=69	=69	=69	=69	=69
*>Letter>D	*>Letter>D	*>Letter>D	*>Letter>D	*>Letter>D	*>Letter>D	*>Letter>D	*>Letter>D	*>Letter>D	*>Letter>D	*>Letter>D	*>Letter>D
*>Label>Bridge	*>Label>Bridge	*>Label>Bridge	*>Label>Bridge	*>Label>Bridge	*>Label>Bridge	*>Label>Bridge	*>Label>Bridge	*>Label>Bridge	*>Label>Bridge	*>Label>Bridge	*>Label>Bridge
1I	C:maj	8e	Gid-	8c 8g	Gid-	8C	Gid-	.	129.503	newline	.
.	.	8e	-dy	8c 8g	-dy	8C	-dy	.	.	.	.
.	.	4e	up	4c 4g	up	8C	up,	.	.	.	.
.	.	.	.	.	.	8~GG	pa-	.	.	.	.
.	.	2r	.	2r	.	4C	-oom,	.	.	.	.
.	.	.	.	.	.	8C	pa-	.	.	.	.
.	.	.	.	.	.	8~GG	-pa-	.	.	.	.
=70	=70	=70	=70	=70	=70	=70	=70	=70	=70	=70	=70
1I	C:1	1r	.	1r	.	4C	-oom,	.	130.431	.	.
.	.	.	.	.	.	8BBq	_	.	.	.	.
.	.	.	.	.	.	8C	pa-	.	.	.	.
.	.	.	.	.	.	8~GG	-pa-	.	.	.	.
.	.	.	.	.	.	4BB-	-maow-	.	.	.	.
.	.	.	.	.	.	4~BB	-maow,	.	.	.	.
=71	=71	=71	=71	=71	=71	=71	=71	=71	=71	=71	=71
1I	C:maj	8e	Gid-	8c 8g	Gid-	8C	gid-	.	133.214	.	.
.	.	8e	-dy	8c 8g	-dy	8C	-dy	.	.	.	.
.	.	4e	up	4c 4g	up	8C	up,	.	.	.	.
.	.	.	.	.	.	8r	.	.	.	.	.
.	.	2r	.	2r	.	4C	oom,	.	.	.	.
.	.	.	.	.	.	8C	pa-	.	.	.	.
.	.	.	.	.	.	8~GG	-pa-	.	.	.	.
=72	=72	=72	=72	=72	=72	=72	=72	=72	=72	=72	=72
1I	C:1	1r	.	1r	.	4C	-oom,	.	134.142	.	.
.	.	.	.	.	.	8C	pa-	.	.	.	.
.	.	.	.	.	.	8C	-pa-	.	.	.	.
.	.	.	.	.	.	4CC	-maow	.	.	.	.
.	.	.	.	.	.	4CC	maow	.	.	.	.
=73	=73	=73	=73	=73	=73	=73	=73	=73	=73	=73	=73
1I	C:maj	2.e	Hi-	2.c 2.g	Hi-	2.CC	hi-	.	136.926	newline	.
.	.	4e	-ho,	4c 4g	-ho,	4EE	-ho,	.	.	.	.
=74	=74	=74	=74	=74	=74	=74	=74	=74	=74	=74	=74
1V	G:maj	16e	Sil	4B 4g	Sil	4GG	Sil-	.	138.801	.	.
.	.	8.d	_	.	.	.	.	.	.	.	.
.	.	8e	ver	8B 8g	ver	8GG	-ver	.	.	.	.
.	.	8r	.	8r	.	8r	.	.	.	.	.
.	.	4r	.	4r	.	4r	.	.	.	.	.
.	.	4e	a-	4B 4g	a-	4GG	a-	.	.	.	.
=75	=75	=75	=75	=75	=75	=75	=75	=75	=75	=75	=75
1I	C:maj	8e	-way	8c 8g	-way	8CC	-way	C	140.677	.	.
.	.	8d	_	8A 8f	_	8CC	_	.	.	.	.
.	.	4c	_	4G 4e	_	4CC	_	.	.	.	.
.	.	2r	.	2r	.	2r	.	.	.	.	.
=76	=76	=76	=76	=76	=76	=76	=76	=76	=76	=76	=76
*D-:	*D-:	*D-:	*	*D-:	*	*D-:	*	*	*D-:	*D-:	*D-:
1V	A-:maj	2r	.	2r	.	2r	.	.	142.553	.	.
.	.	4r	.	4r	.	4r	.	.	.	.	.
.	.	8e-q	_	.	.	.	.	.	.	.	.
.	.	4f	El-	4d- 4a-	El-	4D-	El-	.	.	.	.
=77	=77	=77	=77	=77	=77	=77	=77	=77	=77	=77	=77
*>Letter>B2	*>Letter>B2	*>Letter>B2	*>Letter>B2	*>Letter>B2	*>Letter>B2	*>Letter>B2	*>Letter>B2	*>Letter>B2	*>Letter>B2	*>Letter>B2	*>Letter>B2
*>Label>Chorus	*>Label>Chorus	*>Label>Chorus	*>Label>Chorus	*>Label>Chorus	*>Label>Chorus	*>Label>Chorus	*>Label>Chorus	*>Label>Chorus	*>Label>Chorus	*>Label>Chorus	*>Label>Chorus
1I	D-:maj	4d-	-vi-	4A- 4f	-vi-	4D-	-vi-	(A	144.428	newline	.
.	.	4f	-ra	4d- 4a-	-ra	4D-	-ra	a)	.	.	.
.	.	2r	.	2r	.	2r	.	.	.	.	.
=78	=78	=78	=78	=78	=78	=78	=78	=78	=78	=78	=78
1I	D-:maj	2r	.	2r	.	2r	.	.	146.335	.	.
.	.	4r	.	4r	.	4r	.	.	.	.	.
.	.	12f	El	4d- 4a-	El	4D-	El	.	.	.	.
.	.	6e-	_	.	.	.	.	.	.	.	.
=79	=79	=79	=79	=79	=79	=79	=79	=79	=79	=79	=79
*>Label>>Fadeout	*>Label>>Fadeout	*>Label>>Fadeout	*>Label>>Fadeout	*>Label>>Fadeout	*>Label>>Fadeout	*>Label>>Fadeout	*>Label>>Fadeout	*>Label>>Fadeout	*>Label>>Fadeout	*>Label>>Fadeout	*>Label>>Fadeout
1I	D-:maj	4d-	vi-	4A- 4f	vi-	4D-	vi-	(A	148.242	newline	.
.	.	4f	-ra	4d- 4a-	-ra	4D-	-ra	a)	.	.	.
.	.	2r	.	2r	.	2r	.	.	.	.	.
=80	=80	=80	=80	=80	=80	=80	=80	=80	=80	=80	=80
1I	D-:maj	2r	.	2r	.	2r	.	.	150.139	.	.
.	.	4r	.	4r	.	4r	.	.	.	.	.
.	.	4d-	My	4A- 4f	My	4D-	My	.	.	.	.
=81	=81	=81	=81	=81	=81	=81	=81	=81	=81	=81	=81
1I	D-:maj	2.f	heart's	2.d- 2.a-	heart's	2.D-	heart's	.	152.035	newline	voice
.	.	4f	on	4d- 4a-	on	4D-	on	.	.	.	.
=82	=82	=82	=82	=82	=82	=82	=82	=82	=82	=82	=82
1V	A-:maj	16f	fi	4c 4a-	fi	4AA-	fi	(A	153.318	.	voice
.	.	8.e-	_	.	.	.	.	.	.	.	.
.	.	8e-	re	8c 8a-	re	8AA-	re	a)	.	.	.
.	.	8r	.	8r	.	8r	.	.	.	.	.
.	.	8r	.	8r	.	8r	.	.	.	.	.
.	.	8d-	for	8B- 8g-	for	8EE-	for	.	.	.	.
.	.	8e-q	_	.	.	.	.	.	.	.	.
.	.	12f	El	4c 4a-	El	4AA-	El	.	.	.	.
.	.	6e-	_	.	.	.	.	.	.	.	.
=83	=83	=83	=83	=83	=83	=83	=83	=83	=83	=83	=83
1I	D-:maj	4d-	vi-	4A- 4f	vi-	4DD-	vi-	(A	154.6	.	voice
.	.	4f	-ra	4d- 4a-	-ra	4DD-	-ra	a)	.	.	.
.	.	2r	.	2r	.	2r	.	.	.	.	.
=84	=84	=84	=84	=84	=84	=84	=84	=84	=84	=84	=84
1I	D-:maj	1r	.	1r	.	1r	.	.	155.883	.	voice
1r;	N	r;	.	r;	.	r;	.	.	157.165	.	r
1r;	N	r;	.	r;	.	r;	.	.	161.155	.	r
*-	*-	*-	*-	*-	*-	*-	*-	*-	*-	*-	*-
!!!BillboardChartDate: 1981/05/30
!!!BillboardPeak: 5
!!!BillboardWeeksOnChart: 22
!!!COC: Oak Ridge Boys
!!!ENC: Nathaniel Condit-Schultz
!!!EST: Awating manual error checking and editing.
!!!OTL: Elvira
!!!RDF**harte: Chris Harte's syntax, used by MIREX
!!!RDF**harmony: **recip + pitch class of root + harmonic quality
!!!RDF**leadinstrument: original McGill primary instrumentation annotation
!!!RDF**phrase: newline = linebreak in original McGill transcription
!!!RDF**timestamp: McGill audio timestamp in seconds
!!!RDT: 2017/01/12/
!!!SampleActualRank: 48
!!!SampleID#: 0864
!!!SampleTargetRank: 48
!!!MBID: bfc6eaa1-6e58-4411-aaaa-c27b7f925ff7
